assets/features/home/subscription/visa.svg

<svg width="60" height="40" viewBox="0 0 60 40" fill="none" xmlns="http://www.w3.org/2000/svg">
<rect width="60" height="40" rx="8" fill="#1434CB"/>
<path d="M37.1596 12.0303C33.7301 12.0303 30.6653 13.8067 30.6653 17.0887C30.6653 20.8525 36.1008 21.1124 36.1008 23.0033C36.1008 23.7994 35.1878 24.5121 33.6284 24.5121C31.4153 24.5121 29.7613 23.5163 29.7613 23.5163L29.0536 26.8282C29.0536 26.8282 30.959 27.6694 33.4888 27.6694C37.2383 27.6694 40.1887 25.8057 40.1887 22.4677C40.1887 18.4905 34.7306 18.2382 34.7306 16.4833C34.7306 15.8595 35.4801 15.1762 37.035 15.1762C38.7894 15.1762 40.2208 15.9004 40.2208 15.9004L40.9134 12.7017C40.9134 12.7017 39.356 12.0303 37.1596 12.0303ZM5.78307 12.2717L5.70001 12.7545C5.70001 12.7545 7.14282 13.0184 8.44228 13.5448C10.1154 14.1483 10.2347 14.4997 10.5164 15.5911L13.587 27.4204H17.7033L24.0447 12.2717H19.9379L15.8632 22.5714L14.2005 13.8409C14.048 12.8417 13.2756 12.2717 12.3301 12.2717H5.78307ZM25.6961 12.2717L22.4744 27.4204H26.3906L29.6009 12.2717H25.6961V12.2717ZM47.5379 12.2717C46.5935 12.2717 46.0932 12.7769 45.7261 13.6598L39.9886 27.4204H44.0954L44.89 25.1269H49.8932L50.3764 27.4204H54L50.8388 12.2717H47.5379ZM48.072 16.3644L49.2893 22.0489H46.028L48.072 16.3644Z" fill="white"/>
</svg>

<svg xmlns="http://www.w3.org/2000/svg" width="60" height="40" fill="none" viewBox="0 0 60 40"><rect width="60" height="40" fill="#1434cb" rx="8"/><path fill="#fff" d="M37.16 12.03c-3.43 0-6.495 1.777-6.495 5.059 0 3.764 5.436 4.023 5.436 5.914 0 .796-.913 1.51-2.473 1.51-2.213 0-3.867-.997-3.867-.997l-.707 3.312s1.905.841 4.435.841c3.75 0 6.7-1.863 6.7-5.201 0-3.977-5.458-4.23-5.458-5.985 0-.623.75-1.307 2.304-1.307 1.754 0 3.186.724 3.186.724l.692-3.198s-1.557-.672-3.753-.672m-31.377.242-.083.482s1.443.264 2.742.79c1.673.604 1.793.956 2.074 2.047l3.071 11.83h4.116l6.342-15.15h-4.107l-4.075 10.3-1.662-8.73c-.153-1-.925-1.57-1.87-1.57zm19.913 0L22.474 27.42h3.917l3.21-15.148zm21.842 0c-.944 0-1.445.505-1.812 1.388L39.99 27.42h4.106l.795-2.293h5.003l.483 2.293H54l-3.161-15.148zm.534 4.092 1.217 5.685h-3.261z"/></svg>
